X: 82
M:2/4
L:1/16
K:D
uA2|FDFA dfaf|gefd dcBA|GBGB FAFA|EFGA GFED|
|:A2|vdfdf cece|BdBd BAGF|GBGB FAFA|EFGA GFED|


